img/icons/location/factory.svg

<svg xmlns="http://www.w3.org/2000/svg" viewBox="0 0 48 47"><path d="M44 45V22.56l-14 10v-9.75L15.12 31l-1.18-20H11.1A5 5 0 0116 7h10a7 7 0 007-7h-2a5 5 0 01-5 5H16a7 7 0 00-6.92 6h-3l-2 34H0v2h48v-2zM28 26.19v10.25l14-10V45H15.94l-.69-11.82zM7.94 13h4.12l1.14 19.5a1.1 1.1 0 000 .36L13.94 45H6.06z" fill="#231f20" data-name="Layer 2"/></svg>

<svg xmlns="http://www.w3.org/2000/svg" viewBox="0 0 48 47"><defs><style>.cls-1{fill:#231f20;}</style></defs><title>Factory</title><g id="Layer_2" data-name="Layer 2"><g id="Icons"><g id="Location"><path id="Factory" class="cls-1" d="M44,45V22.56l-14,10V22.81L15.12,31,13.94,11H11.1A5,5,0,0,1,16,7H26a7,7,0,0,0,7-7H31a5,5,0,0,1-5,5H16a7,7,0,0,0-6.92,6h-3l-2,34H0v2H48V45ZM28,26.19V36.44l14-10V45H15.94l-.69-11.82ZM7.94,13h4.12L13.2,32.5a1.1,1.1,0,0,0,0,.36L13.94,45H6.06Z"/></g></g></g></svg>
